src/assest/images/logos/mogu.svg

<svg preserveAspectRatio="none" viewBox="0 0 78 24" fill="none" xmlns="http://www.w3.org/2000/svg">
<path d="M18.5219 0.0148057C20.3578 0.0148057 21.7397 0.488587 22.6675 1.43615C23.6052 2.38371 24.074 3.90376 24.074 5.9963V14.7156C24.074 15.8202 23.1786 16.7156 22.074 16.7156H20.5947V6.61814C20.5947 5.37446 20.3529 4.43677 19.8692 3.80506C19.3856 3.17335 18.6502 2.8575 17.6632 2.8575C16.2813 2.8575 15.2844 3.30167 14.6724 4.19001C14.0703 5.06848 13.7693 6.3467 13.7693 8.02468V14.7156C13.7693 15.8202 12.8738 16.7156 11.7693 16.7156H10.2899V6.61814C10.2899 5.78902 10.1814 5.09809 9.96422 4.54534C9.75694 3.98273 9.43615 3.56323 9.00185 3.28686C8.56755 3.00062 8.01974 2.8575 7.35842 2.8575C6.40099 2.8575 5.63603 3.07465 5.06354 3.50894C4.50093 3.94324 4.09624 4.58482 3.84948 5.43368C3.60271 6.27267 3.47933 7.30413 3.47933 8.52807V14.7156C3.47933 15.8202 2.5839 16.7156 1.47933 16.7156H0V0.325725H2.70944L3.19803 2.53177H3.3905C3.72609 1.95928 4.14065 1.49044 4.63418 1.12523C5.13757 0.750154 5.69525 0.473782 6.30722 0.296113C6.91919 0.108575 7.55583 0.0148057 8.21715 0.0148057C9.44109 0.0148057 10.4725 0.231956 11.3115 0.666255C12.1505 1.09068 12.7773 1.74213 13.1919 2.6206H13.4584C13.9716 1.73226 14.6872 1.07588 15.6052 0.65145C16.5231 0.22702 17.4954 0.0148057 18.5219 0.0148057Z" fill="#343633"/>
<path d="M43.1872 8.48365C43.1872 9.84577 43.0095 11.0549 42.6542 12.111C42.2988 13.1672 41.7806 14.0605 41.0996 14.7909C40.4185 15.5114 39.5993 16.0642 38.6418 16.4491C37.6844 16.8242 36.6036 17.0117 35.3994 17.0117C34.2742 17.0117 33.2427 16.8242 32.305 16.4491C31.3673 16.0642 30.553 15.5114 29.8621 14.7909C29.181 14.0605 28.6529 13.1672 28.2779 12.111C27.9028 11.0549 27.7152 9.84577 27.7152 8.48365C27.7152 6.67736 28.0262 5.14744 28.648 3.89389C29.2797 2.63048 30.1779 1.66811 31.3426 1.00679C32.5073 0.345466 33.8941 0.0148057 35.503 0.0148057C37.0132 0.0148057 38.3457 0.345466 39.5006 1.00679C40.6554 1.66811 41.5585 2.63048 42.21 3.89389C42.8614 5.15731 43.1872 6.68723 43.1872 8.48365ZM31.2982 8.48365C31.2982 9.67798 31.4413 10.6996 31.7276 11.5484C32.0237 12.3973 32.4777 13.0487 33.0897 13.5028C33.7017 13.9469 34.4913 14.169 35.4586 14.169C36.4259 14.169 37.2155 13.9469 37.8275 13.5028C38.4395 13.0487 38.8886 12.3973 39.1748 11.5484C39.4611 10.6996 39.6042 9.67798 39.6042 8.48365C39.6042 7.28933 39.4611 6.27761 39.1748 5.44849C38.8886 4.6095 38.4395 3.97286 37.8275 3.53856C37.2155 3.09439 36.421 2.8723 35.4438 2.8723C34.0027 2.8723 32.9515 3.35595 32.2902 4.32326C31.6289 5.29056 31.2982 6.67736 31.2982 8.48365Z" fill="#343633"/>
<path d="M51.6106 24C49.3898 24 47.6871 23.6002 46.5026 22.8007C45.3182 22.0012 44.726 20.8809 44.726 19.4399C44.726 18.4331 45.0418 17.5793 45.6735 16.8785C46.3052 16.1875 47.2084 15.7088 48.383 15.4423C47.9388 15.2449 47.5539 14.9389 47.2281 14.5244C46.9123 14.0999 46.7543 13.6311 46.7543 13.1178C46.7543 12.5059 46.9271 11.9827 47.2725 11.5484C47.618 11.1141 48.1362 10.6946 48.8271 10.2899C47.9684 9.92474 47.2775 9.33251 46.7543 8.51326C46.2411 7.68415 45.9845 6.71191 45.9845 5.59655C45.9845 4.41209 46.2361 3.40531 46.7395 2.57619C47.2429 1.7372 47.9783 1.10056 48.9456 0.666255C49.9129 0.222085 51.0825 0 52.4545 0C52.7506 0 53.0714 0.0197409 53.4169 0.0592227C53.7722 0.088834 54.098 0.128316 54.3941 0.177668C54.7001 0.21715 54.932 0.261567 55.0899 0.310919H60.7605V2.25046L57.977 2.76866C58.2435 3.14374 58.4558 3.5731 58.6137 4.05676C58.7716 4.53054 58.8506 5.04874 58.8506 5.61135C58.8506 7.30907 58.2633 8.64651 57.0887 9.62369C55.924 10.591 54.3151 11.0746 52.2621 11.0746C51.7685 11.0549 51.2898 11.0154 50.8259 10.9562C50.4706 11.1733 50.1991 11.4152 50.0116 11.6817C49.8241 11.9383 49.7303 12.2295 49.7303 12.5552C49.7303 12.8217 49.8241 13.0389 50.0116 13.2067C50.1991 13.3646 50.4755 13.483 50.8407 13.562C51.2158 13.641 51.6698 13.6804 52.2028 13.6804H55.0307C56.8271 13.6804 58.1991 14.0605 59.1467 14.8205C60.0943 15.5805 60.568 16.6959 60.568 18.1666C60.568 20.0321 59.7981 21.4682 58.2584 22.475C56.7186 23.4917 54.5026 24 51.6106 24ZM51.7439 21.5571C52.9579 21.5571 53.9795 21.4386 54.8086 21.2017C55.6378 20.9648 56.2645 20.6243 56.689 20.1801C57.1134 19.7458 57.3256 19.2276 57.3256 18.6255C57.3256 18.0925 57.1923 17.6829 56.9258 17.3967C56.6593 17.1104 56.2596 16.913 55.7266 16.8044C55.1936 16.6959 54.5323 16.6416 53.7426 16.6416H51.1664C50.5249 16.6416 49.9573 16.7403 49.4638 16.9377C48.9703 17.145 48.5853 17.4411 48.3089 17.826C48.0424 18.211 47.9092 18.6749 47.9092 19.2178C47.9092 19.9679 48.2398 20.5453 48.9012 20.95C49.5724 21.3547 50.5199 21.5571 51.7439 21.5571ZM52.4249 8.79457C53.4416 8.79457 54.1967 8.5182 54.6902 7.96545C55.1837 7.40284 55.4305 6.6132 55.4305 5.59655C55.4305 4.49105 55.1738 3.66194 54.6606 3.10919C54.1572 2.55645 53.407 2.28007 52.4101 2.28007C51.4329 2.28007 50.6877 2.56138 50.1745 3.124C49.6711 3.68661 49.4194 4.52067 49.4194 5.62616C49.4194 6.62307 49.6711 7.40284 50.1745 7.96545C50.6877 8.5182 51.4379 8.79457 52.4249 8.79457Z" fill="#343633"/>
<path d="M77.7861 0.325725V16.7156H75.047L74.5732 14.5096H74.3808C74.0353 15.0722 73.5961 15.541 73.063 15.9161C72.53 16.2813 71.9378 16.5527 71.2864 16.7304C70.6349 16.918 69.9489 17.0117 69.2284 17.0117C67.9946 17.0117 66.9384 16.8044 66.06 16.3899C65.1914 15.9655 64.5251 15.314 64.0612 14.4355C63.5973 13.5571 63.3653 12.422 63.3653 11.0302V0.325725H66.8595V10.3788C66.8595 11.6521 67.1161 12.6046 67.6294 13.2363C68.1525 13.868 68.9619 14.1838 70.0575 14.1838C71.1136 14.1838 71.9526 13.9667 72.5745 13.5324C73.1963 13.0981 73.6355 12.4565 73.8922 11.6076C74.1587 10.7588 74.2919 9.71746 74.2919 8.48365V0.325725H77.7861Z" fill="#343633"/>
</svg>

<svg xmlns="http://www.w3.org/2000/svg" fill="none"><path fill="#343633" d="M18.52.01c1.84 0 3.22.48 4.15 1.43.94.94 1.4 2.46 1.4 4.56v8.72a2 2 0 0 1-2 2H20.6V6.62c0-1.25-.24-2.18-.72-2.81-.48-.64-1.22-.95-2.2-.95-1.39 0-2.39.44-3 1.33-.6.88-.9 2.16-.9 3.83v6.7a2 2 0 0 1-2 2h-1.48V6.62c0-.83-.1-1.52-.33-2.07-.2-.57-.52-.99-.96-1.26a2.93 2.93 0 0 0-1.64-.43 3.7 3.7 0 0 0-2.3.65 3.61 3.61 0 0 0-1.21 1.92c-.25.84-.37 1.87-.37 3.1v6.19a2 2 0 0 1-2 2H0V.32h2.7l.5 2.21h.19c.34-.57.75-1.04 1.24-1.4A5.2 5.2 0 0 1 6.31.3 6.48 6.48 0 0 1 8.2 0c1.23 0 2.26.22 3.1.66a4.07 4.07 0 0 1 1.88 1.95h.27A4.71 4.71 0 0 1 15.6.65a6.87 6.87 0 0 1 2.91-.64ZM43.19 8.48c0 1.37-.18 2.57-.54 3.63a6.85 6.85 0 0 1-4.01 4.34c-.96.37-2.04.56-3.24.56a8.26 8.26 0 0 1-3.1-.56 7.06 7.06 0 0 1-2.44-1.66 7.6 7.6 0 0 1-1.58-2.68 10.8 10.8 0 0 1-.56-3.63c0-1.8.3-3.33.93-4.59a6.64 6.64 0 0 1 2.7-2.88 8.3 8.3 0 0 1 4.15-1 7.9 7.9 0 0 1 4 1 6.85 6.85 0 0 1 2.71 2.88c.65 1.27.98 2.8.98 4.6Zm-11.9 0c0 1.2.15 2.22.44 3.07.3.85.75 1.5 1.36 1.95.61.45 1.4.67 2.37.67.97 0 1.76-.22 2.37-.67a3.9 3.9 0 0 0 1.34-1.95c.3-.85.43-1.87.43-3.07 0-1.2-.14-2.2-.43-3.03a3.73 3.73 0 0 0-1.34-1.91 3.96 3.96 0 0 0-2.39-.67c-1.44 0-2.49.49-3.15 1.45-.66.97-1 2.36-1 4.16ZM51.61 24c-2.22 0-3.92-.4-5.1-1.2a3.83 3.83 0 0 1-1.78-3.36c0-1 .31-1.86.94-2.56a5.08 5.08 0 0 1 2.71-1.44c-.44-.2-.83-.5-1.15-.92a2.3 2.3 0 0 1-.48-1.4c0-.61.18-1.14.52-1.57.35-.44.87-.86 1.56-1.26a4.52 4.52 0 0 1-2.08-1.78 5.43 5.43 0 0 1-.77-2.91c0-1.19.26-2.2.76-3.02a4.77 4.77 0 0 1 2.2-1.91 8.37 8.37 0 0 1 4.48-.61 12.07 12.07 0 0 1 1.67.25h5.67v1.94l-2.78.52a4.76 4.76 0 0 1 .87 2.84c0 1.7-.59 3.04-1.76 4.01-1.17.97-2.77 1.45-4.83 1.45-.5-.02-.97-.05-1.43-.11-.36.21-.63.46-.82.72-.19.26-.28.55-.28.88 0 .26.1.48.28.65.19.15.47.27.83.35.38.08.83.12 1.36.12h2.83c1.8 0 3.17.38 4.12 1.14.94.76 1.42 1.88 1.42 3.35 0 1.86-.77 3.3-2.31 4.3C56.72 23.5 54.5 24 51.6 24Zm.13-2.44c1.22 0 2.24-.12 3.07-.36a4.1 4.1 0 0 0 1.88-1.02c.42-.43.64-.95.64-1.55 0-.54-.14-.95-.4-1.23a2.19 2.19 0 0 0-1.2-.6c-.54-.1-1.2-.16-1.99-.16h-2.57c-.65 0-1.21.1-1.7.3-.5.2-.88.5-1.16.89-.27.38-.4.84-.4 1.39 0 .75.33 1.33 1 1.73.66.4 1.61.6 2.83.6Zm.68-12.77c1.02 0 1.78-.27 2.27-.82.5-.57.74-1.36.74-2.37 0-1.1-.26-1.94-.77-2.5-.5-.54-1.25-.82-2.25-.82-.98 0-1.72.28-2.24.84-.5.57-.75 1.4-.75 2.5 0 1 .25 1.78.75 2.35.52.55 1.27.82 2.25.82ZM77.79.33v16.39h-2.74l-.48-2.21h-.19a4.72 4.72 0 0 1-1.32 1.4c-.53.37-1.12.64-1.77.82a7.4 7.4 0 0 1-2.06.28c-1.24 0-2.3-.2-3.17-.62a4.4 4.4 0 0 1-2-1.95 7.28 7.28 0 0 1-.7-3.41V.33h3.5v10.05c0 1.27.26 2.22.77 2.86.52.63 1.33.94 2.43.94 1.05 0 1.9-.21 2.51-.65a3.48 3.48 0 0 0 1.32-1.92c.27-.85.4-1.9.4-3.13V.33h3.5Z"/></svg>
